!!!OTL: 132. Freylekhs
!!!Genre:	Freylekhs
!!!Mode:	Minor
!!!Listening/dance:	dance
!!!One_Mode:	no
**kern
*thru
*I"P1
*clefG2
*k[b-e-]
*g:
*M2/4
*>A
!!!Begin-Modulation
*g:
!LO:TX:a:i:t=G-minor
=13
8b-
(8qdd/
4cc)
8b-
=14
(16ddLL
16ccJ)
8b-'J
(16b-LL
16aJ)
8g'J
=15
2g
=16
4g
4r
*>A
=17:|!|:
!!!Begin-Modulation
*g:
!LO:TX:a:i:t=G-minor
=13
8b-
(8qdd/
4cc)
8b-
=14
(16ddLL
16ccJ)
8b-'J
(16b-LL
16aJ)
8g'J
=15
2g
=16
4g
4r
*>B
=17:|!|:
4.gg
8ff
=18
4bb-
12aa-XL
12gg
12aa-J
=19
2gg
=20
2g
=21
4.gg
8ff
=22
4bb-
12aa-XL
12gg
12aa-J
=23
2gg
=24
2gg
=25
8.ffL
(16ggJk
8.aa-XL)
(16ffJk
=26
8.ggL)
(16ee-Jk
8.ffL)
(16ddJk
=27
8.ee-L)
(16ccJk
8.ddL)
(16b-Jk
=28
4.cc)
8b-
=29
8b-
(8qdd/
4cc)
8b-
=30
(16ddLL
16ccJ)
8b-J
(16b-LL
16aJ)
8gJ
=31
2g
=32
2gg
*>B
=:|!
4.gg
8ff
=18
4bb-
12aa-XL
12gg
12aa-J
=19
2gg
=20
2g
=21
4.gg
8ff
=22
4bb-
12aa-XL
12gg
12aa-J
=23
2gg
=24
2gg
=25
8.ffL
(16ggJk
8.aa-XL)
(16ffJk
=26
8.ggL)
(16ee-Jk
8.ffL)
(16ddJk
=27
8.ee-L)
(16ccJk
8.ddL)
(16b-Jk
=28
4.cc)
8b-
=29
8b-
(8qdd/
4cc)
8b-
=30
(16ddLL
16ccJ)
8b-J
(16b-LL
16aJ)
8gJ
=31
2g
=32
2gg
=:|!
*-
